src/assets/redutantWork.svg

<svg width="41" height="40" viewBox="0 0 41 40" fill="none" xmlns="http://www.w3.org/2000/svg">
<mask id="mask0_1744_256" style="mask-type:alpha" maskUnits="userSpaceOnUse" x="0" y="0" width="41" height="40">
<rect x="0.399902" width="40" height="40" fill="#D9D9D9"/>
</mask>
<g mask="url(#mask0_1744_256)">
<path d="M18.8829 35.8334C18.1665 35.8334 17.5529 35.578 17.0421 35.0672C16.5315 34.5563 16.2762 33.9427 16.2762 33.2263V18.483C16.2762 17.7666 16.5315 17.153 17.0421 16.6422C17.5529 16.1316 18.1665 15.8763 18.8829 15.8763H33.6262C34.3426 15.8763 34.9562 16.1316 35.4671 16.6422C35.9779 17.153 36.2333 17.7666 36.2333 18.483V33.2263C36.2333 33.9427 35.9779 34.5563 35.4671 35.0672C34.9562 35.578 34.3426 35.8334 33.6262 35.8334H18.8829ZM18.8829 33.7392H33.6262C33.7546 33.7392 33.8722 33.6859 33.9792 33.5793C34.0858 33.4723 34.1392 33.3547 34.1392 33.2263V18.483C34.1392 18.3547 34.0858 18.2372 33.9792 18.1305C33.8722 18.0236 33.7546 17.9701 33.6262 17.9701H18.8829C18.7546 17.9701 18.6371 18.0236 18.5304 18.1305C18.4235 18.2372 18.37 18.3547 18.37 18.483V33.2263C18.37 33.3547 18.4235 33.4723 18.5304 33.5793C18.6371 33.6859 18.7546 33.7392 18.8829 33.7392ZM10.4212 30.453V12.6284C10.4212 11.912 10.6767 11.2984 11.1875 10.7876C11.6983 10.2767 12.3119 10.0213 13.0283 10.0213H30.8529V12.1155H13.0283C12.9 12.1155 12.7825 12.169 12.6758 12.2759C12.5689 12.3826 12.5154 12.5001 12.5154 12.6284V30.453H10.4212ZM4.56665 24.5984V6.77383C4.56665 6.05744 4.82207 5.44383 5.3329 4.933C5.84373 4.42217 6.45735 4.16675 7.17373 4.16675H24.9983V6.26092H7.17373C7.0454 6.26092 6.92776 6.31425 6.82082 6.42091C6.71415 6.52786 6.66082 6.6455 6.66082 6.77383V24.5984H4.56665Z" fill="white"/>
</g>
</svg>

<svg width="41" height="40" viewBox="0 0 41 40" fill="none" xmlns="http://www.w3.org/2000/svg"><mask id="mask0_1744_256" style="mask-type:alpha" maskUnits="userSpaceOnUse" x="0" y="0" width="41" height="40"><path fill="#d9d9d9" d="M.4 0h40v40H.4z"/></mask><g mask="url(#mask0_1744_256)"><path d="M18.883 35.833a2.5 2.5 0 0 1-1.84-.766 2.5 2.5 0 0 1-.767-1.84V18.482q0-1.075.766-1.84a2.5 2.5 0 0 1 1.84-.767h14.744q1.075 0 1.841.766.765.767.766 1.841v14.743a2.5 2.5 0 0 1-.766 1.841 2.5 2.5 0 0 1-1.84.766zm0-2.094h14.743a.5.5 0 0 0 .353-.16.5.5 0 0 0 .16-.353V18.483a.5.5 0 0 0-.16-.352.5.5 0 0 0-.353-.16H18.883a.5.5 0 0 0-.353.16.5.5 0 0 0-.16.352v14.743a.5.5 0 0 0 .16.353.5.5 0 0 0 .353.16m-8.462-3.286V12.628q0-1.075.767-1.84a2.5 2.5 0 0 1 1.84-.767h17.825v2.095H13.028a.5.5 0 0 0-.352.16.5.5 0 0 0-.16.352v17.825zm-5.854-5.855V6.774q0-1.075.766-1.841a2.5 2.5 0 0 1 1.84-.766h17.825V6.26H7.174a.5.5 0 0 0-.353.16.5.5 0 0 0-.16.353v17.824z" fill="#fff"/></g></svg>
